X: 42594
T: Where Lilies Bloom
R: polka
M: 2/4
K: Dmajor
|:D2 FA|d2 cd|B>^A Bc|BA F/G/A|
D2 FA|de/d/ cd|B>A B/c/d|1 ed d2:|2 ed de||
|:f2 ef/e/|d2 cd|B>^A Bc|BA FA|
[1 fg/f/ ef/e/|de/d/ cd|B>A B/c/d|ed de:|
[2 D2 FA|d2 cd|B>A B/c/d|ed d2||

